X:92
%%NRChange 2016-08-16
T: The Fiddle School
O: Denmark
C: Harald Haugaard
K: D
L: 1/8
M: 4/4
P:A
"D"(d2d)(ue dc)BA | "G"(B2B)(uc BA)FD | "A"E2 (ED) E2  (ED) | CDEF GABc | 
"D"(d2d)(ue dc)BA | "G"(B2B)(uc BA)FD | "Em7"E2 (ED) "A"(EG)FE | "A7"(ED)DC D2 z2 :|
P:B
"A drone"E2(ED) (EF)GB | (BA)AF D2 (DF) | E2(ED) (EF)GB | (BA)^GA Bc(de) | 
"D"f2 (fa) d2 (dc) | "G"B2 (Bd) "Em7"G2 GF | "A"EFGA Bcde | (fd)ce "D"d2 z2:|

